src/standard/software/hypervisor.svg

<svg xmlns="http://www.w3.org/2000/svg" viewBox="0 0 36 36">
  <path d="M31 18.38H5a.62.62 0 0 0-.62.62v10a.62.62 0 0 0 .62.62h26a.62.62 0 0 0 .62-.62V19a.62.62 0 0 0-.62-.62Zm-.62 10H5.62v-8.76h24.76Z"/>
  <path d="M9 24.62h6a.62.62 0 0 0 0-1.24H9a.62.62 0 0 0 0 1.24Zm17.76-.04a.69.69 0 0 0 .24.05.63.63 0 0 0 .44-.19.6.6 0 0 0 .18-.44.67.67 0 0 0 0-.24.56.56 0 0 0-.14-.2.65.65 0 0 0-.88 0 .6.6 0 0 0 0 .88.56.56 0 0 0 .16.14Zm4.48-8a.66.66 0 0 0 .2-.14.6.6 0 0 0 .18-.44.59.59 0 0 0-.18-.44.66.66 0 0 0-.2-.14.65.65 0 0 0-.68.14.6.6 0 0 0 0 .88.63.63 0 0 0 .44.19.69.69 0 0 0 .24-.05Zm-17.57.05A.63.63 0 1 0 13 16a.63.63 0 0 0 .67.63Zm11.55 0a.63.63 0 1 0 0-1.25.63.63 0 0 0 0 1.25Zm-14.44 0a.63.63 0 1 0-.63-.63.63.63 0 0 0 .63.63Zm8.66 0a.63.63 0 1 0-.62-.63.63.63 0 0 0 .62.63Zm8.05-.63a.63.63 0 1 0 .62-.62.63.63 0 0 0-.62.62Zm-10.93.63a.63.63 0 1 0-.63-.63.63.63 0 0 0 .63.63Zm5.77 0a.63.63 0 1 0-.62-.63.63.63 0 0 0 .62.63Zm-14.44 0a.63.63 0 1 0-.63-.63.63.63 0 0 0 .63.63Zm-2.89 0a.61.61 0 0 0 .44-.19.63.63 0 0 0 0-.88.64.64 0 0 0-.88 0 .6.6 0 0 0 0 .88.6.6 0 0 0 .44.19Zm0-3.01a.63.63 0 0 0 .63-.62.63.63 0 1 0-1.26 0 .63.63 0 0 0 .63.62Zm0-2.99a.63.63 0 0 0 .63-.63.63.63 0 0 0-1.26 0 .63.63 0 0 0 .63.63Zm0-3.01A.61.61 0 0 0 5.62 7a.67.67 0 0 0 0-.24.56.56 0 0 0-.14-.2.64.64 0 0 0-.88 0 .56.56 0 0 0-.14.2.69.69 0 0 0 0 .24.61.61 0 0 0 .19.44.59.59 0 0 0 .35.18Zm23.11.01a.63.63 0 0 0 0-1.26.63.63 0 1 0 0 1.26Zm-2.89 0A.63.63 0 1 0 24.6 7a.63.63 0 0 0 .62.63Zm-2.89 0a.63.63 0 1 0-.62-.63.63.63 0 0 0 .62.63Zm-2.89 0a.63.63 0 1 0-.62-.63.63.63 0 0 0 .62.63Zm-11.55 0A.63.63 0 1 0 7.26 7a.63.63 0 0 0 .63.63Zm2.89 0a.63.63 0 1 0-.63-.63.63.63 0 0 0 .63.63Zm5.78 0a.63.63 0 1 0-.63-.63.63.63 0 0 0 .63.63Zm-2.89 0A.63.63 0 1 0 13 7a.63.63 0 0 0 .67.63ZM31 7.62a.67.67 0 0 0 .24 0 .66.66 0 0 0 .2-.14.59.59 0 0 0 .18-.48.6.6 0 0 0-.18-.44.66.66 0 0 0-.2-.14.65.65 0 0 0-.68.14.6.6 0 0 0 0 .88.6.6 0 0 0 .44.18Zm0 3a.63.63 0 0 0 .63-.62.63.63 0 0 0-.63-.63.63.63 0 0 0-.63.63.62.62 0 0 0 .63.62Zm0 1.75a.63.63 0 0 0-.63.63.62.62 0 0 0 .63.62.63.63 0 0 0 .63-.62.63.63 0 0 0-.63-.63Z"/>
</svg>

<svg id="be94b2d1-f42d-492e-97f8-4728e5cc011a" data-name="Icon" xmlns="http://www.w3.org/2000/svg" viewBox="0 0 36 36">
  <g>
    <path d="M31,18.38H5a.62.62,0,0,0-.62.62V29a.62.62,0,0,0,.62.62H31a.62.62,0,0,0,.62-.62V19A.62.62,0,0,0,31,18.38Zm-.62,10H5.62V19.62H30.38Z"/>
    <path d="M9,24.62h6a.62.62,0,0,0,0-1.24H9a.62.62,0,0,0,0,1.24Z"/>
    <path d="M26.76,24.58a.69.69,0,0,0,.24.05.63.63,0,0,0,.44-.19.6.6,0,0,0,.18-.44.67.67,0,0,0,0-.24.56.56,0,0,0-.14-.2.65.65,0,0,0-.88,0,.6.6,0,0,0,0,.88A.56.56,0,0,0,26.76,24.58Z"/>
    <path d="M31.24,16.58a.66.66,0,0,0,.2-.14.6.6,0,0,0,.18-.44.59.59,0,0,0-.18-.44.66.66,0,0,0-.2-.14.65.65,0,0,0-.68.14.6.6,0,0,0,0,.88.63.63,0,0,0,.44.19A.69.69,0,0,0,31.24,16.58Z"/>
    <path d="M13.67,16.63A.63.63,0,1,0,13,16,.63.63,0,0,0,13.67,16.63Z"/>
    <path d="M25.22,16.63a.63.63,0,1,0,0-1.25.63.63,0,0,0,0,1.25Z"/>
    <path d="M10.78,16.63a.63.63,0,1,0-.63-.63A.63.63,0,0,0,10.78,16.63Z"/>
    <path d="M19.44,16.63a.63.63,0,1,0-.62-.63A.63.63,0,0,0,19.44,16.63Z"/>
    <path d="M27.49,16a.63.63,0,1,0,.62-.62A.63.63,0,0,0,27.49,16Z"/>
    <path d="M16.56,16.63a.63.63,0,1,0-.63-.63A.63.63,0,0,0,16.56,16.63Z"/>
    <path d="M22.33,16.63a.63.63,0,1,0-.62-.63A.63.63,0,0,0,22.33,16.63Z"/>
    <path d="M7.89,16.63A.63.63,0,1,0,7.26,16,.63.63,0,0,0,7.89,16.63Z"/>
    <path d="M5,16.63a.61.61,0,0,0,.44-.19.63.63,0,0,0,0-.88.64.64,0,0,0-.88,0,.6.6,0,0,0,0,.88A.6.6,0,0,0,5,16.63Z"/>
    <path d="M5,13.62A.63.63,0,0,0,5.63,13a.63.63,0,1,0-1.26,0A.63.63,0,0,0,5,13.62Z"/>
    <path d="M5,10.63A.63.63,0,0,0,5.63,10a.63.63,0,0,0-1.26,0A.63.63,0,0,0,5,10.63Z"/>
    <path d="M5,7.62A.61.61,0,0,0,5.62,7a.67.67,0,0,0,0-.24.56.56,0,0,0-.14-.2.64.64,0,0,0-.88,0,.56.56,0,0,0-.14.2.69.69,0,0,0,0,.24.61.61,0,0,0,.19.44A.59.59,0,0,0,5,7.62Z"/>
    <path d="M28.11,7.63a.63.63,0,0,0,0-1.26.63.63,0,1,0,0,1.26Z"/>
    <path d="M25.22,7.63A.63.63,0,1,0,24.6,7,.63.63,0,0,0,25.22,7.63Z"/>
    <path d="M22.33,7.63A.63.63,0,1,0,21.71,7,.63.63,0,0,0,22.33,7.63Z"/>
    <path d="M19.44,7.63A.63.63,0,1,0,18.82,7,.63.63,0,0,0,19.44,7.63Z"/>
    <path d="M7.89,7.63A.63.63,0,1,0,7.26,7,.63.63,0,0,0,7.89,7.63Z"/>
    <path d="M10.78,7.63A.63.63,0,1,0,10.15,7,.63.63,0,0,0,10.78,7.63Z"/>
    <path d="M16.56,7.63A.63.63,0,1,0,15.93,7,.63.63,0,0,0,16.56,7.63Z"/>
    <path d="M13.67,7.63A.63.63,0,1,0,13,7,.63.63,0,0,0,13.67,7.63Z"/>
    <path d="M31,7.62a.67.67,0,0,0,.24,0,.66.66,0,0,0,.2-.14A.59.59,0,0,0,31.62,7a.6.6,0,0,0-.18-.44.66.66,0,0,0-.2-.14.65.65,0,0,0-.68.14.6.6,0,0,0,0,.88A.6.6,0,0,0,31,7.62Z"/>
    <path d="M31,10.62a.63.63,0,0,0,.63-.62A.63.63,0,0,0,31,9.37a.63.63,0,0,0-.63.63A.62.62,0,0,0,31,10.62Z"/>
    <path d="M31,12.37a.63.63,0,0,0-.63.63.62.62,0,0,0,.63.62.63.63,0,0,0,.63-.62A.63.63,0,0,0,31,12.37Z"/>
  </g>
</svg>
